src/asset/120/trade.svg

<svg width="120" height="120" viewBox="0 0 120 120" fill="none" xmlns="http://www.w3.org/2000/svg">
    <path d="M44.8422 61.8196C45.2364 61.8442 45.606 61.8442 46.0002 61.8688V36.1475H29.1973V66.6639C33.1886 63.8606 38.461 61.5491 44.8422 61.8196Z" fill="url(#paint0_linear)"/>
    <path d="M44.5958 67.721C39.7668 67.5243 35.0857 69.2702 30.7248 72.9095C30.1581 73.3767 29.6654 73.844 29.1973 74.2866V94.9669H46.0002V67.7948C45.532 67.7702 45.0639 67.7456 44.5958 67.721Z" fill="url(#paint1_linear)"/>
    <path d="M68.9259 66.5366V45H52.123V62.8049C58.2086 63.8293 62.668 65.5854 68.9259 66.5366Z" fill="url(#paint2_linear)"/>
    <path d="M58.602 70.2681C56.4585 69.7071 54.389 69.1705 52.0977 68.7559V94.951H68.9006V72.4388C64.9832 71.9266 61.7556 71.0729 58.602 70.2681Z" fill="url(#paint3_linear)"/>
    <path d="M75.2326 72.7672C74.8631 72.7672 74.4935 72.7672 74.1239 72.7425C74.0993 72.7425 74.0747 72.7425 74.0254 72.7425V94.9503H90.8283V67.7637C86.5167 70.6475 81.2689 72.7672 75.2326 72.7672Z" fill="url(#paint4_linear)"/>
    <path d="M74.3703 66.8275C80.9979 67.0986 86.5906 64.0176 90.8283 60.3697V25H74.0254V66.8275C74.1486 66.8275 74.2718 66.8275 74.3703 66.8275Z" fill="url(#paint5_linear)"/>
    <path d="M19.9942 76.9512C19.6223 76.9512 19.2753 76.8512 18.9282 76.6512C18.011 76.0512 17.7135 74.8261 18.3084 73.9011C18.7051 73.2761 27.7288 59.1008 43.421 59.1008C43.7929 59.1008 44.1647 59.1008 44.5366 59.1258C51.0069 59.4008 55.5683 60.6009 59.981 61.7759C64.3689 62.9509 68.5336 64.0259 74.5825 64.3009C88.7873 64.9009 98.1829 48.1506 98.282 47.9756C98.8274 47.0006 100.017 46.6756 100.984 47.2006C101.951 47.7506 102.273 48.9506 101.753 49.9257C101.331 50.7007 91.3903 68.326 75.351 68.326C75.0287 68.326 74.7312 68.326 74.4089 68.301C67.9387 68.026 63.3772 66.826 58.9646 65.651C54.5767 64.4759 50.4119 63.4009 44.3631 63.1259C30.2574 62.5259 21.7295 75.9012 21.6303 76.0262C21.3081 76.6262 20.6635 76.9512 19.9942 76.9512Z" fill="url(#paint6_linear)"/>
    <defs>
        <linearGradient id="paint0_linear" x1="29.1973" y1="36.1475" x2="54.9848" y2="50.3465" gradientUnits="userSpaceOnUse">
            <stop stop-color="#FFBE41"/>
            <stop offset="1" stop-color="#FF9141"/>
        </linearGradient>
        <linearGradient id="paint1_linear" x1="29.1973" y1="67.7061" x2="53.5507" y2="82.7169" gradientUnits="userSpaceOnUse">
            <stop stop-color="#FFBE41"/>
            <stop offset="1" stop-color="#FF9141"/>
        </linearGradient>
        <linearGradient id="paint2_linear" x1="52.123" y1="45" x2="73.0129" y2="61.2983" gradientUnits="userSpaceOnUse">
            <stop stop-color="#FFBE41"/>
            <stop offset="1" stop-color="#FF9141"/>
        </linearGradient>
        <linearGradient id="paint3_linear" x1="52.0977" y1="68.7559" x2="75.9069" y2="84.0283" gradientUnits="userSpaceOnUse">
            <stop stop-color="#FFBE41"/>
            <stop offset="1" stop-color="#FF9141"/>
        </linearGradient>
        <linearGradient id="paint4_linear" x1="74.0254" y1="67.7637" x2="98.3423" y2="82.7929" gradientUnits="userSpaceOnUse">
            <stop stop-color="#FFBE41"/>
            <stop offset="1" stop-color="#FF9141"/>
        </linearGradient>
        <linearGradient id="paint5_linear" x1="74.0254" y1="25" x2="102.965" y2="36.6209" gradientUnits="userSpaceOnUse">
            <stop stop-color="#FFBE41"/>
            <stop offset="1" stop-color="#FF9141"/>
        </linearGradient>
        <linearGradient id="paint6_linear" x1="18" y1="46.9512" x2="37.0045" y2="100.164" gradientUnits="userSpaceOnUse">
            <stop stop-color="#78A0FF"/>
            <stop offset="1" stop-color="#5078E6"/>
        </linearGradient>
    </defs>
</svg>

<svg width="120" height="120" fill="none" xmlns="http://www.w3.org/2000/svg"><path d="M44.842 61.82c.394.024.764.024 1.158.049V36.148H29.197v30.516c3.991-2.803 9.264-5.115 15.645-4.844z" fill="url(#paint0_linear)"/><path d="M44.596 67.721c-4.83-.196-9.51 1.55-13.871 5.189-.567.467-1.06.934-1.528 1.377v20.68H46V67.795l-1.404-.074z" fill="url(#paint1_linear)"/><path d="M68.926 66.536V45H52.123v17.805c6.086 1.025 10.545 2.78 16.803 3.732z" fill="url(#paint2_linear)"/><path d="M58.603 70.268c-2.144-.561-4.213-1.098-6.505-1.512V94.95h16.803V72.439c-3.917-.513-7.145-1.366-10.298-2.171z" fill="url(#paint3_linear)"/><path d="M75.232 72.768c-.37 0-.74 0-1.109-.025h-.098v22.208h16.802V67.764c-4.311 2.884-9.559 5.004-15.595 5.004z" fill="url(#paint4_linear)"/><path d="M74.37 66.828c6.627.27 12.22-2.81 16.457-6.458V25H74.025v41.828h.344z" fill="url(#paint5_linear)"/><path d="M19.994 76.95c-.372 0-.719-.1-1.066-.3-.917-.6-1.215-1.824-.62-2.75.397-.624 9.42-14.8 25.113-14.8.372 0 .744 0 1.116.025 6.47.275 11.031 1.475 15.444 2.65 4.388 1.175 8.553 2.25 14.601 2.525 14.205.6 23.6-16.15 23.7-16.325a1.983 1.983 0 012.702-.775c.967.55 1.289 1.75.769 2.725-.422.775-10.363 18.4-26.402 18.4-.322 0-.62 0-.942-.025-6.47-.275-11.032-1.474-15.444-2.65-4.388-1.175-8.553-2.25-14.602-2.525-14.106-.6-22.633 12.776-22.733 12.9-.322.6-.966.926-1.636.926z" fill="url(#paint6_linear)"/><defs><linearGradient id="paint0_linear" x1="90.828" y1="25" x2="90.828" y2="94.967" gradientUnits="userSpaceOnUse"><stop stop-color="#4070FF"/><stop offset="1" stop-color="#365FD9"/></linearGradient><linearGradient id="paint1_linear" x1="90.828" y1="25" x2="90.828" y2="94.967" gradientUnits="userSpaceOnUse"><stop stop-color="#4070FF"/><stop offset="1" stop-color="#365FD9"/></linearGradient><linearGradient id="paint2_linear" x1="90.828" y1="25" x2="90.828" y2="94.967" gradientUnits="userSpaceOnUse"><stop stop-color="#4070FF"/><stop offset="1" stop-color="#365FD9"/></linearGradient><linearGradient id="paint3_linear" x1="90.828" y1="25" x2="90.828" y2="94.967" gradientUnits="userSpaceOnUse"><stop stop-color="#4070FF"/><stop offset="1" stop-color="#365FD9"/></linearGradient><linearGradient id="paint4_linear" x1="90.828" y1="25" x2="90.828" y2="94.967" gradientUnits="userSpaceOnUse"><stop stop-color="#4070FF"/><stop offset="1" stop-color="#365FD9"/></linearGradient><linearGradient id="paint5_linear" x1="90.828" y1="25" x2="90.828" y2="94.967" gradientUnits="userSpaceOnUse"><stop stop-color="#4070FF"/><stop offset="1" stop-color="#365FD9"/></linearGradient><linearGradient id="paint6_linear" x1="102" y1="46.951" x2="102" y2="76.951" gradientUnits="userSpaceOnUse"><stop stop-color="#FFA526"/><stop offset="1" stop-color="#FF860D"/></linearGradient></defs></svg>
